X: 27435
T: Moll's Gap
R: reel
M: 4/4
K: Cmajor
GF|:EGcG AcGF|EG,CE DB,G,D|EGcG A/^A/Bcd|egdg ecd/c/G|
EGcG AcGF|EG,CE DB,G,D|EE/E/EG FF/F/FA|1 GA/B/cd ecd/c/G:|2 GA/B/cd ecd/c/A||
|:Gcec ega/g/e|fd{e}de {c}dcAc|Gcec ega/g/e|dd/d/de de/d/cA|
Gcec ega/g/e|fd{e}de {c}dcAG|EE/E/EG FF/F/FA|1 GA/B/cd ecd/c/A:|2 GA/B/cd ecd/c/G||

